static/img/svg/bell-plus.svg

<svg xmlns="http://www.w3.org/2000/svg" width="24" height="24" viewBox="0 0 24 24"><path d="M13.001 6h-2v3H8v2h3.001v3h2v-3H16V9h-2.999z"/><path d="M20 13.838V10c0-3.94-2.942-7.34-6.906-7.915l-1.013-.082a1.082 1.082 0 0 0-.161 0l-1.063.087C6.948 2.652 4 6.053 4 10v3.838l-.948 2.846A1 1 0 0 0 4 18h4.5c0 1.93 1.57 3.5 3.5 3.5s3.5-1.57 3.5-3.5h4.52a1 1 0 0 0 .869-1.495L20 13.838zM12 19.5c-.841 0-1.5-.659-1.5-1.5h3c0 .841-.659 1.5-1.5 1.5zM5.388 16l.561-1.684A1.03 1.03 0 0 0 6 14v-4c0-2.959 2.211-5.509 5.08-5.923l.921-.074.868.068C15.794 4.497 18 7.046 18 10v4c0 .107.018.214.052.316l.56 1.684H5.388z"/></svg>

<svg xmlns="http://www.w3.org/2000/svg" width="24" height="24" viewBox="0 0 24 24"><path d="M13.001 6L11.001 6 11.001 9 8 9 8 11 11.001 11 11.001 14 13.001 14 13.001 11 16 11 16 9 13.001 9z"/><path d="M20,13.838V10c0-3.94-2.942-7.34-6.906-7.915l-1.013-0.082c-0.054-0.004-0.107-0.004-0.161,0L10.857,2.09 C6.948,2.652,4,6.053,4,10v3.838l-0.948,2.846c-0.103,0.305-0.051,0.641,0.137,0.901C3.377,17.846,3.679,18,4,18h4.5 c0,1.93,1.57,3.5,3.5,3.5s3.5-1.57,3.5-3.5H20c0.007,0,0.015,0.001,0.02,0c0.553,0,1-0.447,1-1c0-0.18-0.047-0.349-0.131-0.495 L20,13.838z M12,19.5c-0.841,0-1.5-0.659-1.5-1.5h3C13.5,18.841,12.841,19.5,12,19.5z M5.388,16l0.561-1.684 C5.982,14.214,6,14.107,6,14v-4c0-2.959,2.211-5.509,5.08-5.923l0.921-0.074l0.868,0.068C15.794,4.497,18,7.046,18,10v4 c0,0.107,0.018,0.214,0.052,0.316L18.612,16H5.388z"/></svg>
